report_00007_2020-12-11T15:55:29.892Z/network-server-latency/comparison/sorted/11_vs_12.svg

<svg width="640" height="500" xmlns="http://www.w3.org/2000/svg" xmlns:xlink="http://www.w3.org/1999/xlink"><path fill="#fff" d="M0 0h640v500H0z"/><defs><path id="d" stroke-width=".222" stroke="currentColor" d="M-1-1h2v2h-2z"/><path id="b" stroke-width=".222" stroke="currentColor" d="M0-1.33l-1.33 2h2.66z"/><path id="f" stroke-width=".222" stroke="currentColor" d="M0 1.33L1.265.411.782-1.067l-1.564-.009-.483 1.487z"/><use xlink:href="#b" id="c" stroke="currentColor" transform="rotate(180)"/><use xlink:href="#d" id="e" stroke="currentColor" transform="rotate(45)"/><circle id="a" stroke-width=".222" stroke="currentColor" cx="0" cy="0" r="1"/></defs><g fill="none" color="#000" stroke="currentColor"><path stroke="#000" d="M53.9 352.7h9m552.1 0h-9"/><text transform="translate(45.6 356.6)" stroke="none" fill="#000" font-family="Arial" font-size="12" text-anchor="end"><tspan>3.5</tspan></text></g><g fill="none" color="#000" stroke="currentColor"><path stroke="#000" d="M53.9 266.7h9m552.1 0h-9"/><text transform="translate(45.6 270.6)" stroke="none" fill="#000" font-family="Arial" font-size="12" text-anchor="end"><tspan>4</tspan></text></g><g fill="none" color="#000" stroke="currentColor"><path stroke="#000" d="M53.9 180.6h9m552.1 0h-9"/><text transform="translate(45.6 184.5)" stroke="none" fill="#000" font-family="Arial" font-size="12" text-anchor="end"><tspan>4.5</tspan></text></g><g fill="none" color="#000" stroke="currentColor"><path stroke="#000" d="M53.9 94.6h9m552.1 0h-9"/><text transform="translate(45.6 98.5)" stroke="none" fill="#000" font-family="Arial" font-size="12" text-anchor="end"><tspan>5</tspan></text></g><g fill="none" color="#000" stroke="currentColor"><path stroke="#000" d="M53.9 428v-9m0-400.9v9"/><text transform="translate(53.9 449.9)" stroke="none" fill="#000" font-family="Arial" font-size="12" text-anchor="middle"><tspan>0</tspan></text></g><g fill="none" color="#000" stroke="currentColor"><path stroke="#000" d="M110.6 428v-9m0-400.9v9"/><text transform="translate(110.6 449.9)" stroke="none" fill="#000" font-family="Arial" font-size="12" text-anchor="middle"><tspan>10</tspan></text></g><g fill="none" color="#000" stroke="currentColor"><path stroke="#000" d="M167.3 428v-9m0-400.9v9"/><text transform="translate(167.3 449.9)" stroke="none" fill="#000" font-family="Arial" font-size="12" text-anchor="middle"><tspan>20</tspan></text></g><g fill="none" color="#000" stroke="currentColor"><path stroke="#000" d="M223.9 428v-9m0-400.9v9"/><text transform="translate(223.9 449.9)" stroke="none" fill="#000" font-family="Arial" font-size="12" text-anchor="middle"><tspan>30</tspan></text></g><g fill="none" color="#000" stroke="currentColor"><path stroke="#000" d="M280.6 428v-9m0-400.9v9"/><text transform="translate(280.6 449.9)" stroke="none" fill="#000" font-family="Arial" font-size="12" text-anchor="middle"><tspan>40</tspan></text></g><g fill="none" color="#000" stroke="currentColor"><path stroke="#000" d="M337.3 428v-9m0-400.9v9"/><text transform="translate(337.3 449.9)" stroke="none" fill="#000" font-family="Arial" font-size="12" text-anchor="middle"><tspan>50</tspan></text></g><g fill="none" color="#000" stroke="currentColor"><path stroke="#000" d="M394 428v-9m0-400.9v9"/><text transform="translate(394 449.9)" stroke="none" fill="#000" font-family="Arial" font-size="12" text-anchor="middle"><tspan>60</tspan></text></g><g fill="none" color="#000" stroke="currentColor"><path stroke="#000" d="M450.6 428v-9m0-400.9v9"/><text transform="translate(450.6 449.9)" stroke="none" fill="#000" font-family="Arial" font-size="12" text-anchor="middle"><tspan>70</tspan></text></g><g fill="none" color="#000" stroke="currentColor"><path stroke="#000" d="M507.3 428v-9m0-400.9v9"/><text transform="translate(507.3 449.9)" stroke="none" fill="#000" font-family="Arial" font-size="12" text-anchor="middle"><tspan>80</tspan></text></g><g fill="none" color="#000" stroke="currentColor"><path stroke="#000" d="M564 428v-9m0-400.9v9"/><text transform="translate(564 449.9)" stroke="none" fill="#000" font-family="Arial" font-size="12" text-anchor="middle"><tspan>90</tspan></text></g><path stroke="#000" d="M53.9 18.1V428H615V18.1H53.9z" fill="none" color="#000"/><text transform="translate(508.4 467.9)" stroke="none" fill="#000" font-family="Arial" font-size="12" text-anchor="end" color="#000"><tspan>pages+cached+noexternal+nofonts+nosvg+noimg</tspan></text><path stroke="#9400D3" d="M516.7 464h42.2m-505-70.1l5.7-4.3 5.6-4.2 5.7-6.5 5.7-1.6 5.6-10.6 5.7-11.5 5.7-.2 5.6-3.6 5.7-.3 5.7-.5 5.6-3.4 5.7-2 5.7-3.9 5.6-2.1 5.7-1.6 5.7-.8h5.7l5.6-.5 5.7-.9 5.7-8 5.6-3.9 5.7-2.3 5.7-1.7 5.6-1.9 5.7-.4 5.7-2.6 5.6-4 5.7-4.8 5.7-1.2 5.6-1.3 5.7-3.1 5.7-.7 5.6-2.1 5.7-1.4 5.7-2.1 5.6-.5 5.7-2.9 5.7-2.4 5.6-1 5.7-.3 5.7-5.1 5.6-.6h5.7l5.7-.5 5.6-3 5.7-2.7 5.7-.4 5.6-1.8 5.7-.4 5.7-.8 5.7-.6 5.6-.8 5.7-1.4 5.7-.1 5.6-3.8 5.7-.4 5.7-2.2 5.6-1.6 5.7-6.2 5.7-1.6 5.6-2.6 5.7-1.1 5.7-.9 5.6-1h5.7l5.7-.5 5.6-.7 5.7-5.2 5.7-.2 5.6-4.3 5.7-10.8 5.7-2.7h5.6l5.7-1.6 5.7-5.5 5.6-6.9 5.7-8.9 5.7-6.4 5.6-1.5 5.7-4.1 5.7-1.6 5.6-.2 5.7-.7 5.7-4 5.7-1.3 5.6-.1 5.7-1.7 5.7-7.1 5.6-4.9 5.7-12.1 5.7-9.4 5.6-1 5.7-5.2 5.7-2.7 5.6-4.5 5.7-1 5.7-32.8 5.6-13.4 5.7-2.6" fill="none" color="#000"/><text transform="translate(508.4 485.9)" stroke="none" fill="#000" font-family="Arial" font-size="12" text-anchor="end" color="#000"><tspan>pages+cached+noexternal+nofonts+nosvg+noimg+nocss</tspan></text><path stroke="#009E73" d="M516.7 482h42.2m-505-61.9l5.7-22.6 5.6-16.4 5.7-21.1 5.7-5.5 5.6-2.2 5.7-4.3 5.7-.8 5.6-11.1 5.7-1 5.7-2.3 5.6-1.3 5.7-3.4 5.7-4.2 5.6-7.3 5.7-2.6 5.7-1.5 5.7-.7 5.6-.5 5.7-1.7 5.7-.2 5.6-.1 5.7-.2 5.7-2.1 5.6-.4 5.7-2.1 5.7-4.6 5.6-1.9 5.7-1.3 5.7-3.7 5.6-1.6 5.7-3.9 5.7-.9 5.6-4.9 5.7-.3 5.7-.2 5.6-4.3 5.7-1 5.7-.8 5.6-6.9 5.7-2.2 5.7-3.2 5.6-.4 5.7-.2 5.7-.5 5.6-.1 5.7-1 5.7-.6 5.6-1.1 5.7-1.2 5.7-3.1 5.7-5.1 5.6-.5 5.7-.9 5.7-.9 5.6-6.5 5.7-1.9 5.7-1 5.6-6.4h5.7l5.7-.7 5.6-1.4 5.7-1.4 5.7-10.2 5.6-.5 5.7-.1 5.7-2.7 5.6-1 5.7-1.5 5.7-.8 5.6-1.6 5.7-.6h5.7l5.6-6.7 5.7-1.8 5.7-2.3 5.6-1.1 5.7-1.4 5.7-2.7 5.6-.6 5.7-3.9 5.7-17.7 5.6-7.5 5.7-1.1 5.7-4.5 5.7-11.8 5.6-4 5.7-4 5.7-14.4 5.6-7.2 5.7-1.9 5.7-.8 5.6-8.3 5.7-7.6 5.7-17.5 5.6-1 5.7-30 5.7-4.2 5.6-7L615 26" fill="none" color="#000"/><g fill="none" color="#000" stroke="currentColor"><path stroke="#000" d="M53.9 18.1V428H615V18.1H53.9z"/></g></svg>

<?xml version="1.0" encoding="utf-8"  standalone="no"?>
<svg 
 width="640" height="500"
 viewBox="0 0 640 500"
 xmlns="http://www.w3.org/2000/svg"
 xmlns:xlink="http://www.w3.org/1999/xlink"
>

<title>Gnuplot</title>
<desc>Produced by GNUPLOT 5.4 patchlevel 0 </desc>

<g id="gnuplot_canvas">

<rect x="0" y="0" width="640" height="500" fill="#ffffff"/>
<defs>

	<circle id='gpDot' r='0.5' stroke-width='0.5' stroke='currentColor'/>
	<path id='gpPt0' stroke-width='0.222' stroke='currentColor' d='M-1,0 h2 M0,-1 v2'/>
	<path id='gpPt1' stroke-width='0.222' stroke='currentColor' d='M-1,-1 L1,1 M1,-1 L-1,1'/>
	<path id='gpPt2' stroke-width='0.222' stroke='currentColor' d='M-1,0 L1,0 M0,-1 L0,1 M-1,-1 L1,1 M-1,1 L1,-1'/>
	<rect id='gpPt3' stroke-width='0.222' stroke='currentColor' x='-1' y='-1' width='2' height='2'/>
	<rect id='gpPt4' stroke-width='0.222' stroke='currentColor' fill='currentColor' x='-1' y='-1' width='2' height='2'/>
	<circle id='gpPt5' stroke-width='0.222' stroke='currentColor' cx='0' cy='0' r='1'/>
	<use xlink:href='#gpPt5' id='gpPt6' fill='currentColor' stroke='none'/>
	<path id='gpPt7' stroke-width='0.222' stroke='currentColor' d='M0,-1.33 L-1.33,0.67 L1.33,0.67 z'/>
	<use xlink:href='#gpPt7' id='gpPt8' fill='currentColor' stroke='none'/>
	<use xlink:href='#gpPt7' id='gpPt9' stroke='currentColor' transform='rotate(180)'/>
	<use xlink:href='#gpPt9' id='gpPt10' fill='currentColor' stroke='none'/>
	<use xlink:href='#gpPt3' id='gpPt11' stroke='currentColor' transform='rotate(45)'/>
	<use xlink:href='#gpPt11' id='gpPt12' fill='currentColor' stroke='none'/>
	<path id='gpPt13' stroke-width='0.222' stroke='currentColor' d='M0,1.330 L1.265,0.411 L0.782,-1.067 L-0.782,-1.076 L-1.265,0.411 z'/>
	<use xlink:href='#gpPt13' id='gpPt14' fill='currentColor' stroke='none'/>
	<filter id='textbox' filterUnits='objectBoundingBox' x='0' y='0' height='1' width='1'>
	  <feFlood flood-color='#FFFFFF' flood-opacity='1' result='bgnd'/>
	  <feComposite in='SourceGraphic' in2='bgnd' operator='atop'/>
	</filter>
	<filter id='greybox' filterUnits='objectBoundingBox' x='0' y='0' height='1' width='1'>
	  <feFlood flood-color='lightgrey' flood-opacity='1' result='grey'/>
	  <feComposite in='SourceGraphic' in2='grey' operator='atop'/>
	</filter>
</defs>
<g fill="none" color="#FFFFFF" stroke="black" stroke-width="1.00" stroke-linecap="butt" stroke-linejoin="miter">
</g>
<g fill="none" color="black" stroke="currentColor" stroke-width="1.00" stroke-linecap="butt" stroke-linejoin="miter">
	<path stroke='black'  d='M53.9,352.7 L62.9,352.7 M615.0,352.7 L606.0,352.7  '/>	<g transform="translate(45.6,356.6)" stroke="none" fill="black" font-family="Arial" font-size="12.00"  text-anchor="end">
		<text><tspan font-family="Arial" > 3.5</tspan></text>
	</g>
</g>
<g fill="none" color="black" stroke="currentColor" stroke-width="1.00" stroke-linecap="butt" stroke-linejoin="miter">
	<path stroke='black'  d='M53.9,266.7 L62.9,266.7 M615.0,266.7 L606.0,266.7  '/>	<g transform="translate(45.6,270.6)" stroke="none" fill="black" font-family="Arial" font-size="12.00"  text-anchor="end">
		<text><tspan font-family="Arial" > 4</tspan></text>
	</g>
</g>
<g fill="none" color="black" stroke="currentColor" stroke-width="1.00" stroke-linecap="butt" stroke-linejoin="miter">
	<path stroke='black'  d='M53.9,180.6 L62.9,180.6 M615.0,180.6 L606.0,180.6  '/>	<g transform="translate(45.6,184.5)" stroke="none" fill="black" font-family="Arial" font-size="12.00"  text-anchor="end">
		<text><tspan font-family="Arial" > 4.5</tspan></text>
	</g>
</g>
<g fill="none" color="black" stroke="currentColor" stroke-width="1.00" stroke-linecap="butt" stroke-linejoin="miter">
	<path stroke='black'  d='M53.9,94.6 L62.9,94.6 M615.0,94.6 L606.0,94.6  '/>	<g transform="translate(45.6,98.5)" stroke="none" fill="black" font-family="Arial" font-size="12.00"  text-anchor="end">
		<text><tspan font-family="Arial" > 5</tspan></text>
	</g>
</g>
<g fill="none" color="black" stroke="currentColor" stroke-width="1.00" stroke-linecap="butt" stroke-linejoin="miter">
	<path stroke='black'  d='M53.9,428.0 L53.9,419.0 M53.9,18.1 L53.9,27.1  '/>	<g transform="translate(53.9,449.9)" stroke="none" fill="black" font-family="Arial" font-size="12.00"  text-anchor="middle">
		<text><tspan font-family="Arial" > 0</tspan></text>
	</g>
</g>
<g fill="none" color="black" stroke="currentColor" stroke-width="1.00" stroke-linecap="butt" stroke-linejoin="miter">
	<path stroke='black'  d='M110.6,428.0 L110.6,419.0 M110.6,18.1 L110.6,27.1  '/>	<g transform="translate(110.6,449.9)" stroke="none" fill="black" font-family="Arial" font-size="12.00"  text-anchor="middle">
		<text><tspan font-family="Arial" > 10</tspan></text>
	</g>
</g>
<g fill="none" color="black" stroke="currentColor" stroke-width="1.00" stroke-linecap="butt" stroke-linejoin="miter">
	<path stroke='black'  d='M167.3,428.0 L167.3,419.0 M167.3,18.1 L167.3,27.1  '/>	<g transform="translate(167.3,449.9)" stroke="none" fill="black" font-family="Arial" font-size="12.00"  text-anchor="middle">
		<text><tspan font-family="Arial" > 20</tspan></text>
	</g>
</g>
<g fill="none" color="black" stroke="currentColor" stroke-width="1.00" stroke-linecap="butt" stroke-linejoin="miter">
	<path stroke='black'  d='M223.9,428.0 L223.9,419.0 M223.9,18.1 L223.9,27.1  '/>	<g transform="translate(223.9,449.9)" stroke="none" fill="black" font-family="Arial" font-size="12.00"  text-anchor="middle">
		<text><tspan font-family="Arial" > 30</tspan></text>
	</g>
</g>
<g fill="none" color="black" stroke="currentColor" stroke-width="1.00" stroke-linecap="butt" stroke-linejoin="miter">
	<path stroke='black'  d='M280.6,428.0 L280.6,419.0 M280.6,18.1 L280.6,27.1  '/>	<g transform="translate(280.6,449.9)" stroke="none" fill="black" font-family="Arial" font-size="12.00"  text-anchor="middle">
		<text><tspan font-family="Arial" > 40</tspan></text>
	</g>
</g>
<g fill="none" color="black" stroke="currentColor" stroke-width="1.00" stroke-linecap="butt" stroke-linejoin="miter">
	<path stroke='black'  d='M337.3,428.0 L337.3,419.0 M337.3,18.1 L337.3,27.1  '/>	<g transform="translate(337.3,449.9)" stroke="none" fill="black" font-family="Arial" font-size="12.00"  text-anchor="middle">
		<text><tspan font-family="Arial" > 50</tspan></text>
	</g>
</g>
<g fill="none" color="black" stroke="currentColor" stroke-width="1.00" stroke-linecap="butt" stroke-linejoin="miter">
	<path stroke='black'  d='M394.0,428.0 L394.0,419.0 M394.0,18.1 L394.0,27.1  '/>	<g transform="translate(394.0,449.9)" stroke="none" fill="black" font-family="Arial" font-size="12.00"  text-anchor="middle">
		<text><tspan font-family="Arial" > 60</tspan></text>
	</g>
</g>
<g fill="none" color="black" stroke="currentColor" stroke-width="1.00" stroke-linecap="butt" stroke-linejoin="miter">
	<path stroke='black'  d='M450.6,428.0 L450.6,419.0 M450.6,18.1 L450.6,27.1  '/>	<g transform="translate(450.6,449.9)" stroke="none" fill="black" font-family="Arial" font-size="12.00"  text-anchor="middle">
		<text><tspan font-family="Arial" > 70</tspan></text>
	</g>
</g>
<g fill="none" color="black" stroke="currentColor" stroke-width="1.00" stroke-linecap="butt" stroke-linejoin="miter">
	<path stroke='black'  d='M507.3,428.0 L507.3,419.0 M507.3,18.1 L507.3,27.1  '/>	<g transform="translate(507.3,449.9)" stroke="none" fill="black" font-family="Arial" font-size="12.00"  text-anchor="middle">
		<text><tspan font-family="Arial" > 80</tspan></text>
	</g>
</g>
<g fill="none" color="black" stroke="currentColor" stroke-width="1.00" stroke-linecap="butt" stroke-linejoin="miter">
	<path stroke='black'  d='M564.0,428.0 L564.0,419.0 M564.0,18.1 L564.0,27.1  '/>	<g transform="translate(564.0,449.9)" stroke="none" fill="black" font-family="Arial" font-size="12.00"  text-anchor="middle">
		<text><tspan font-family="Arial" > 90</tspan></text>
	</g>
</g>
<g fill="none" color="black" stroke="currentColor" stroke-width="1.00" stroke-linecap="butt" stroke-linejoin="miter">
</g>
<g fill="none" color="black" stroke="currentColor" stroke-width="1.00" stroke-linecap="butt" stroke-linejoin="miter">
	<path stroke='black'  d='M53.9,18.1 L53.9,428.0 L615.0,428.0 L615.0,18.1 L53.9,18.1 Z  '/></g>
<g fill="none" color="black" stroke="currentColor" stroke-width="1.00" stroke-linecap="butt" stroke-linejoin="miter">
</g>
	<g id="gnuplot_plot_1" ><title>pages+cached+noexternal+nofonts+nosvg+noimg</title>
<g fill="none" color="black" stroke="currentColor" stroke-width="1.00" stroke-linecap="butt" stroke-linejoin="miter">
	<g transform="translate(508.4,467.9)" stroke="none" fill="black" font-family="Arial" font-size="12.00"  text-anchor="end">
		<text><tspan font-family="Arial" >pages+cached+noexternal+nofonts+nosvg+noimg</tspan></text>
	</g>
</g>
<g fill="none" color="black" stroke="currentColor" stroke-width="1.00" stroke-linecap="butt" stroke-linejoin="miter">
	<path stroke='rgb(148,   0, 211)'  d='M516.7,464.0 L558.9,464.0 M53.9,393.9 L59.6,389.6 L65.2,385.4 L70.9,378.9 L76.6,377.3 L82.2,366.7
		L87.9,355.2 L93.6,355.0 L99.2,351.4 L104.9,351.1 L110.6,350.6 L116.2,347.2 L121.9,345.2 L127.6,341.3
		L133.2,339.2 L138.9,337.6 L144.6,336.8 L150.3,336.8 L155.9,336.3 L161.6,335.4 L167.3,327.4 L172.9,323.5
		L178.6,321.2 L184.3,319.5 L189.9,317.6 L195.6,317.2 L201.3,314.6 L206.9,310.6 L212.6,305.8 L218.3,304.6
		L223.9,303.3 L229.6,300.2 L235.3,299.5 L240.9,297.4 L246.6,296.0 L252.3,293.9 L257.9,293.4 L263.6,290.5
		L269.3,288.1 L274.9,287.1 L280.6,286.8 L286.3,281.7 L291.9,281.1 L297.6,281.1 L303.3,280.6 L308.9,277.6
		L314.6,274.9 L320.3,274.5 L325.9,272.7 L331.6,272.3 L337.3,271.5 L343.0,270.9 L348.6,270.1 L354.3,268.7
		L360.0,268.6 L365.6,264.8 L371.3,264.4 L377.0,262.2 L382.6,260.6 L388.3,254.4 L394.0,252.8 L399.6,250.2
		L405.3,249.1 L411.0,248.2 L416.6,247.2 L422.3,247.2 L428.0,246.7 L433.6,246.0 L439.3,240.8 L445.0,240.6
		L450.6,236.3 L456.3,225.5 L462.0,222.8 L467.6,222.8 L473.3,221.2 L479.0,215.7 L484.6,208.8 L490.3,199.9
		L496.0,193.5 L501.6,192.0 L507.3,187.9 L513.0,186.3 L518.6,186.1 L524.3,185.4 L530.0,181.4 L535.7,180.1
		L541.3,180.0 L547.0,178.3 L552.7,171.2 L558.3,166.3 L564.0,154.2 L569.7,144.8 L575.3,143.8 L581.0,138.6
		L586.7,135.9 L592.3,131.4 L598.0,130.4 L603.7,97.6 L609.3,84.2 L615.0,81.6  '/></g>
	</g>
	<g id="gnuplot_plot_2" ><title>pages+cached+noexternal+nofonts+nosvg+noimg+nocss</title>
<g fill="none" color="black" stroke="currentColor" stroke-width="1.00" stroke-linecap="butt" stroke-linejoin="miter">
	<g transform="translate(508.4,485.9)" stroke="none" fill="black" font-family="Arial" font-size="12.00"  text-anchor="end">
		<text><tspan font-family="Arial" >pages+cached+noexternal+nofonts+nosvg+noimg+nocss</tspan></text>
	</g>
</g>
<g fill="none" color="black" stroke="currentColor" stroke-width="1.00" stroke-linecap="butt" stroke-linejoin="miter">
	<path stroke='rgb(  0, 158, 115)'  d='M516.7,482.0 L558.9,482.0 M53.9,420.1 L59.6,397.5 L65.2,381.1 L70.9,360.0 L76.6,354.5 L82.2,352.3
		L87.9,348.0 L93.6,347.2 L99.2,336.1 L104.9,335.1 L110.6,332.8 L116.2,331.5 L121.9,328.1 L127.6,323.9
		L133.2,316.6 L138.9,314.0 L144.6,312.5 L150.3,311.8 L155.9,311.3 L161.6,309.6 L167.3,309.4 L172.9,309.3
		L178.6,309.1 L184.3,307.0 L189.9,306.6 L195.6,304.5 L201.3,299.9 L206.9,298.0 L212.6,296.7 L218.3,293.0
		L223.9,291.4 L229.6,287.5 L235.3,286.6 L240.9,281.7 L246.6,281.4 L252.3,281.2 L257.9,276.9 L263.6,275.9
		L269.3,275.1 L274.9,268.2 L280.6,266.0 L286.3,262.8 L291.9,262.4 L297.6,262.2 L303.3,261.7 L308.9,261.6
		L314.6,260.6 L320.3,260.0 L325.9,258.9 L331.6,257.7 L337.3,254.6 L343.0,249.5 L348.6,249.0 L354.3,248.1
		L360.0,247.2 L365.6,240.7 L371.3,238.8 L377.0,237.8 L382.6,231.4 L388.3,231.4 L394.0,230.7 L399.6,229.3
		L405.3,227.9 L411.0,217.7 L416.6,217.2 L422.3,217.1 L428.0,214.4 L433.6,213.4 L439.3,211.9 L445.0,211.1
		L450.6,209.5 L456.3,208.9 L462.0,208.9 L467.6,202.2 L473.3,200.4 L479.0,198.1 L484.6,197.0 L490.3,195.6
		L496.0,192.9 L501.6,192.3 L507.3,188.4 L513.0,170.7 L518.6,163.2 L524.3,162.1 L530.0,157.6 L535.7,145.8
		L541.3,141.8 L547.0,137.8 L552.7,123.4 L558.3,116.2 L564.0,114.3 L569.7,113.5 L575.3,105.2 L581.0,97.6
		L586.7,80.1 L592.3,79.1 L598.0,49.1 L603.7,44.9 L609.3,37.9 L615.0,26.0  '/></g>
	</g>
<g fill="none" color="#FFFFFF" stroke="rgb(  0, 158, 115)" stroke-width="2.00" stroke-linecap="butt" stroke-linejoin="miter">
</g>
<g fill="none" color="black" stroke="currentColor" stroke-width="2.00" stroke-linecap="butt" stroke-linejoin="miter">
</g>
<g fill="none" color="black" stroke="black" stroke-width="1.00" stroke-linecap="butt" stroke-linejoin="miter">
</g>
<g fill="none" color="black" stroke="currentColor" stroke-width="1.00" stroke-linecap="butt" stroke-linejoin="miter">
	<path stroke='black'  d='M53.9,18.1 L53.9,428.0 L615.0,428.0 L615.0,18.1 L53.9,18.1 Z  '/></g>
<g fill="none" color="black" stroke="currentColor" stroke-width="1.00" stroke-linecap="butt" stroke-linejoin="miter">
</g>
</g>
</svg>
